X:1
T:Sonatina No. 1
T:Sonatina
T:Op. 55, No. 1
T:Friedrich Kuhlau
T:Public Domain (PianoXML typeset)
T:Public Domain (PianoXML typeset)
T:Public Domain (PianoXML typeset)
C:Friedrich Kuklau
Z:Public Domain (PianoXML typeset)
%%score { 1 | 2 }
L:1/8
Q:1/4=120
M:4/4
K:C
V:1 treble nm="Piano" snm="Pno."
V:2 bass 
V:1
!p!"^Allegro" (!3!c3 !1!G !tenuto!ecBd | c3 G !tenuto!ecBd | cGAB !1!c!<(!dec!<)! | %3
 !>!ag!>(!^fg =fe!1!d!2!c!>)! |!f! .[Bf]2) .[Bf]2!<(! (!1!G!2!B!3!df!<)! | %5
!f! .!4
2![ce]2) .[ce]2!<(! (Gcec!<)! | .[Bd]) z ([ce]2 .[Bd]) z ([ce]2 | %7
!p! .[Bd])!<(! (!1!de^f gabc'!<)! |"_dolce" !>!d'4 c'bag | .^f2) .f2 .f2 (!tenuto!f2 | %10
 g2) .!3!g2!<(! (ag^fg!<)! |!>(! !>!a3) (d!>)!!<(! e^f!1!ga!<)! | bd'c'b !2!ac'ba | %13
 gbag!>(! !2!^fad!2!f!>)! |!p! .g2) (!1!GA"_cresc." Bcde | ^f!1!gab!f! !>!c'ad'f | %16
 !1!g2) (!>!!3!ba g^fed |"_dim." c!3!BAG ^FDcF |!p! GDc^F GDcF | .!3!G)(GBd .g2) z2 :: %20
"_dolce" (!>!f4 gfed | !tenuto!c2) .B2 .B2 .B2 | (!tenuto!G4 ABcd | !>!_e8) | %24
 (!tenuto!_e2 fe dc_B_A | !tenuto!G2) .^F2 .F2 .F2 |!<(! .G(GBd !>!gf_ed!<)! | %27
!>(! !tenuto!f_edc _B_AG^F!>)! | G)!pp!(GBd !>!gf_ed | !tenuto!f_edc _B_AG^F | %30
"_cresc." .G2) (GA Bcde | f2) (ga bc'd'e' | .f'2)!>(! (!>!a'g' f'e'd'c' | bagf edcB!>)! | %34
!p! (c3) G !tenuto!ecBd | c3 G !tenuto!ecBd | c3)!<(! c (c'a^gb!<)! |!>(! afeg fd^ce!>)! | %38
!p! (d3) A !tenuto!fd^ce | d3 A !tenuto!fd^ce | d3!<(! A B^cde!<)! | fgag!>(! fedc!>)! | %42
!p! .[Bf]2) .[Bf]2 (GBdf | .[ce]2) .[ce]2"_cresc." (cegc' |!mf! .[e_b]2) .[eb]2!<(! (egc'b!<)! | %45
!f! .[fa]2) .[fa]2!>(! (!>!afde!>)! | %46
!mf!!<(! !tenuto!B2 !tenuto!c2 !tenuto![Bd]2 !tenuto![ce]2!<)! | %47
 !>![df]2) z ([df] !tenuto![ce]2) z ([ce] | .[Bd]) z ([ce]2 .[Bd]) z ([ce]2 | %49
 .[Bd])!p! (g!<(!ab c'd'e'f'!<)! | !>!g'4 f'e'd'c' | .b2) .b2 .b2 (!tenuto!b2 | %52
 .c'2) .c'2 (d'c'bc' |!>(! !>!d'3) (g!>)!!<(! abc'd'!<)! | e'g'f'e' d'f'e'd' | %55
!>(! c'e'd'c' bd'gb!>)! |!p! .c'2)"_cresc." (cd efga | bc'd'e'!f! f'd'g'd' | .c'2) (e'd' c'bag | %59
"_dim." fedc BGfd |!p! cGfB cGfB |!p! .c)(ceg .c'2) z2 :|[M:3/8][Q:1/8=132]"^Vivace"!p! (e/c/ | %63
 .G).G (e/c/ | .G).G (e/c/ | .B).[Bf].[Bf] | !tenuto![Bf]2 (f/d/ | B/!tenuto!a/g/f/e/d/ | %68
 c/B/A/G/A/B/ | c/G/e/c/B/d/ | .c2)!f! (e/c/ | .G).G (e/c/ | .G).G (e/c/ | .B).[Bf].[Bf] | %74
 !>![Bf]2 (f/d/ | B/!tenuto!a/g/f/e/d/ | c/B/A/G/A/B/ | c/G/e/c/B/d/ | .c2)!p! c/B/ | AAA | %80
 (d2 B/G/ | ^F)FF | (!tenuto!A/G/^F/G/.B) |!mf! .B.B.B | (!tenuto!e2 c/A/ | .^G).G.G | %86
!<(! (!tenuto!B/A/^G/A/!<)!.c) |!p! z/ (D/^D/E/F/^F/ | G/^G/A/^A/B/c/ |!<(! ^c/d/^d/e/f/^f/ | %90
 g/^g/a/^a/b)!<)! |!mf! z/"_poco a poco" (d/^d/e/f/^f/ |"_cresc." g/^g/a/^a/b/c'/ | %93
 ^c'/d'/^d'/e'/f'/^f'/ | g') (f'/g'/a'/f'/ | d'/e'/f'/d'/b/c'/ | d'/b/f/"_dim."g/a/f/ | %97
 d/e/f/d/B/c/ | d/B/G)!f! (e/c/ | .G).G (e/c/ | .G).G (e/c/ | .B).[Bf].[Bf] | !>![Bf]2 (f/d/ | %103
 B/!tenuto!a/g/f/e/d/ | c/B/A/G/A/B/ | c/G/e/c/B/d/ | .c2)!p! (e'/c'/ | .g).g(e'/c'/ | %108
 .g).g(e'/c'/ | .b).[bf'].[bf'] | !tenuto![bf']2 (f'/d'/ | b/!tenuto!a'/g'/f'/e'/d'/ | %112
 c'/b/a/g/a/b/ | c'/g/e'/c'/b/d'/ | .c'2)!p! .c ||[K:F]"_dolce""^expressivo" (!tenuto!c2 a/f/ | %116
 c2 A/d/ | c2 B/G/ | E2) (E | F2) .F | (F>G.[FA]) | ([FA]3 | .[EG]).c.c | (!tenuto!c2 a/f/ | %124
 c2 A/d/ | c2 B/G/ | E2) (E | !tenuto!F2) .F | ((!>![FA]2 [EG])) | (!tenuto![EG]3 | .F2) (a/g/ || %131
[K:C] .f).f"_dim." (f/e/ | .d).d (d/c/ | .B).B.B | B2!p! (a/g/ | .B) z"_cresc." (a/g/ | %136
 .c) z (a/g/ | d3-) | (d>!>(!^de/c/!>)! |!p! .G).G (e/c/ | .G).G (e/c/ | .B).[Bf].[Bf] | %142
 !tenuto![Bf]2 (f/d/ | B/!tenuto!a/g/f/e/d/ | c/B/A/G/A/B/ | c/G/e/c/B/d/ | .c2)!p! (_B/A/ | %147
 .G).G.G | (!tenuto!c2!>(! A/F/!>)! | .E).E.E | (!tenuto!G/F/E/F/.A) |!mf! .A.A.A | %152
 (!tenuto!d2 B/G/ | .^F).F.F | (!tenuto!A/G/^F/G/.B) |!f! .d.d.d | (!tenuto!g2 e/c/ | .B).B.B | %158
 (!tenuto!d/c/B/c/.e) | z/ (G/^G/A/^A/B/ | c/^c/"_poco a  poco"d/^d/e/f/ | %161
"_cresc." ^f/g/^g/a/^a/b/ |!8va(! c'/^c'/d'/^d'/e') | z/ (g/^g/a/^a/b/ | c'/^c'/d'/^d'/e'/f'/ | %165
 ^f'/g'/^g'/a'/^a'/b'/ | c''2)!8va)!!f! (C/E/ | .G).G (C/E/ | .G).G!p! (G/c/ | %169
 !tenuto![Ge]2 [Fd]) | .[Ec]2!f! (c/e/ | .g).g (c/e/ | .g).g!p! (g/c'/ | !tenuto![ge']2 .[fd']) | %174
 .[ec']2!f! (3(G/A/B/ | .c2) (3(G,/A,/B,/ | .C2)!ff! (3(G/A/B/ | .c).[EGc].[EGc] | !>![EGc]2 |] %179
V:2
 .C,2 (!1
3![CE]4 !2
5![G,D]2 | .!1
3![CE]2) ([CE]4 [G,D]2 | .[CE]2) z2 .[CE]2 z2 | .[CE]2 z2 z4 | %4
 .[G,D]2 .[G,D]2 z4 | .[CE]2 .[CE]2 z4 | .[G,D] z ([CE]2 .[G,D]) z ([CE]2 | .[G,D]) z z2 z4 | %8
 !3!B,(!1!DB,D B,DB,D |"_legato" [A,C])D[A,C]D [A,C]D[A,C](D | %10
 !3
5![G,B,])D[G,B,]D [G,B,]D[G,B,](D | !2
5![^F,C])D[F,C]D [F,C]D[F,C](D | %12
 .[G,B,]2) z2 .[CE]2 z2 | .D2 z2 .[D,C]2 z2 | .[G,B,]2 z2 z4 | z4[K:treble] (([DA]4 | %16
 [GB]2)) z2 z4 | z4[K:bass] (([D,A,]4 | .[G,B,]2)) .[D,A,]2 .[G,B,]2 .[D,A,]2 | %19
 .[G,B,]2 .[G,B,D]2 .[G,B,D]2 z2 ::!p! (G,DB,D G,DB,)(D | G,)FDF G,FD(F | G,)ECE G,EC(E | %23
 G,)_ECE G,EC(E | _A,)CA,C A,CA,C | _A,CA,C A,CA,C | .[G,B,]2 z2 z4 | .[G,C]2 z2 z4 | %28
 .[G,B,]2 z2 z4 | .[G,C]2 z2 z4 | .[G,B,]2 z2 z4 | .[G,B,D]2 z2 z4 | .[G,B,D]2 z2 z4 | z8 | %34
 .C,2 (!>![CE]4 [G,D]2 | .[CE]2) (!>![CE]4 [G,D]2 | .[CE]2) .[CE]2 z4 | z8 | %38
 .D,2 (!>![DF]4 [A,E]2 | .[DF]2) (!>![DF]4 [A,E]2 | .[DF]2) .[DF]2 z4 | z8 | .[G,D]2 .[G,D]2 z4 | %43
 .[CE]2 .[CE]2 z4 |[K:treble] .[CG]2 .[CG]2 z4 | .[FA]2 .[FA]2 z4 | %46
 !tenuto!FG!tenuto!EG !tenuto!DG!tenuto!CG | B,G^FG CGFG | G,GCG G,GCG | G, z z2 z4 | (EGEG FGEG | %51
 [DF])G[DF]G [DF]G[DF](G | [CE])G[CE]G [CE]G[CE](G | [B,F])G[B,F]G [B,F]G[B,F](G | %54
 .[CE]2) z2 .[FA]2 z2 | .G2 z2 .[G,F]2 z2 | .[CE]2 z2 z4 | z4 (([Gd]4 | [ce]2)) z2 z4 | %59
 z4 (([G,D]4 | [CE]2)) .[G,D]2 .[CE]2 .[G,D]2 | .[CE]2 .[CEG]2 .[CEG]2 z2 :|[M:3/8][K:bass] z | %63
 .[CE].[CE] z | .[CE].[CE] z | .[G,D].[G,D].[G,D] | !tenuto![G,D]2 z | !>![G,D]3- | (([G,D]3 | %69
 .[CE])).[CE].[G,D] | .[CE]2 z | .[CE].[CE] z | .[CE].[CE] z | .[G,D].[G,D].[G,D] | !>![G,D]2 z | %75
 [G,D]3- | (([G,D]3 | [CE]))[CE][G,D] | .[CE]2 z | [^F,CD][F,CD][F,CD] | [G,B,D]3 | %81
 [A,CD][A,CD][A,CD] | [B,D]2 z | .[^G,DE].[G,DE].[G,DE] | [A,CE]3 | .[B,DE].[B,DE].[B,DE] | %86
 [CE]2 z | !tenuto![D,A,C]3 | !tenuto![D,G,B,]3 | !tenuto![D,^F,A,]2 !tenuto![C,A,C] | %90
 !tenuto![D,G,B,]3 | !tenuto![D,A,C]3 | !tenuto![D,G,B,]3 | !tenuto![D,^F,A,]2 .[C,A,C] | %94
 .[G,B,]2 z | [G,B,DF]3- | [G,B,DF]3- | [G,B,DF]3- | [G,B,DF]2 z | .[CE].[CE] z | .[CE].[CE] z | %101
 .[G,D].[G,D].[G,D] | !>![G,D]2 z | [G,D]3- | (([G,D]3 | .[CE])).[CE].[G,D] | .[CE]2 z | %107
[K:treble] .[ce].[ce] z | .[ce].[ce] z | .[Gd].[Gd].[Gd] | !tenuto![Gd]2 z | [Gd]3- | ([Gd]3 | %113
 .[ce]).[ce].[Gd] | .[ce]2 z ||[K:F][K:bass] F,A,(C | F,)A,(C | E,)G,(C | G,)B,(C | F,)A,(C | %120
 F,)A,(C | C,).C.C | C2 z | F,A,(C | F,)A,(C | E,)G,(C | G,)B,(C | F,)A,(C | C,).C.C | (C,CB, | %130
 .[F,A,]3) ||[K:C][K:treble] .[FA].[FA] z | .[FA].[FA] z | .[FG].[FG].[FG] | [FG]2 z | .[FG] z z | %136
 .[EG] z z | [B,FG]3- | [B,FG]2 z |[K:bass] .[CE].[CE] z | .[CE].[CE] z | .[G,D].[G,D].[G,D] | %142
 !tenuto![G,D]2 z | [G,D]3- | (([G,D]3 | .[CE])).[CE].[G,D] | .[CE]2 z | %147
 .[E,_B,C].[E,B,C].[E,B,C] | !tenuto![F,A,C]3 | .[G,_B,C].[G,B,C].[G,B,C] | [A,C]2 z | %151
 .[^F,CD].[F,CD].[F,CD] | !tenuto![G,B,D]3 | .[A,CD].[A,CD].[A,CD] | [B,D]2[K:treble] z | %155
 .[B,FG].[B,FG].[B,FG] | !tenuto![CEG]3 | .[DFG].[DFG].[DFG] | [EG]2 z |[K:bass] !tenuto![G,DF]3 | %160
 !tenuto![G,CE]3 | !tenuto![G,B,D]2 !tenuto![G,DF] | !tenuto![G,CE]3 | !tenuto![G,DF]3 | %164
 !tenuto![G,CE]3 | !tenuto![G,B,D]2 .[G,DF] | .[CE]2 (C,/E,/ | .G,).G, (C,/E,/ | .G,).G, z | %169
 z (G,/A,/B,/G,/ | .C2)[K:treble] (C/E/ | .G).G (C/E/ | .G).G z | z (G/A/B/G/ | %174
 .c2)[K:bass] (3(G,/A,/B,/ | .C2) (3(G,,/A,,/B,,/ | .C,2) (3(G,/A,/B,/ | .C).C,.C, | !>!C,2 |] %179

